;FLAVOR:Marlin
;TIME:4594
;Filament used: 3.6625m
;Layer height: 0.28
;MINX:55.972
;MINY:69.971
;MINZ:0.28
;MAXX:164.028
;MAXY:150.029
;MAXZ:21.84
;Generated with Cura_SteamEngine 4.3.0
M140 S70
M105
M190 S70
M104 S210
M105
M109 S210
M82 ;absolute extrusion mode
M201 X500.00 Y500.00 Z100.00 E5000.00 ;Setup machine max acceleration
M203 X500.00 Y500.00 Z10.00 E50.00 ;Setup machine max feedrate
M204 P500.00 R1000.00 T500.00 ;Setup Print/Retract/Travel acceleration
M205 X8.00 Y8.00 Z0.40 E5.00 ;Setup Jerk
M220 S100 ;Reset Feedrate
M221 S100 ;Reset Flowrate

G28 ;Home

G92 E0 ;Reset Extruder
G1 Z2.0 F3000 ;Move Z Axis up
G1 X10.1 Y20 Z0.28 F5000.0 ;Move to start position
G1 X10.1 Y200.0 Z0.28 F1500.0 E15 ;Draw the first line
G1 X10.4 Y200.0 Z0.28 F5000.0 ;Move to side a little
G1 X10.4 Y20 Z0.28 F1500.0 E30 ;Draw the second line
G92 E0 ;Reset Extruder
G1 Z2.0 F3000 ;Move Z Axis up

G92 E0
G92 E0
G1 F2700 E-5
;LAYER_COUNT:78
;LAYER:0
M107
G0 F6000 X59.13 Y71.876 Z0.28
;TYPE:SKIRT
G1 F2700 E0
G1 F1200 X59.766 Y71.408 E0.03677
G1 X60.446 Y71.007 E0.07353
G1 X61.006 Y70.741 E0.1024
G1 X61.318 Y70.608 E0.11819
G1 X62.059 Y70.335 E0.15496
G1 X62.824 Y70.139 E0.19173
G1 X63.975 Y69.993 E0.24576
G1 X64.188 Y69.982 E0.25569
G1 X64.586 Y69.972 E0.27423
G1 X66.496 Y69.971 E0.36316
G1 X66.501 Y69.971 E0.3634
G1 X124.431 Y69.977 E3.06086
G1 X126.477 Y69.971 E3.15613
G1 X126.501 Y69.971 E3.15725
G1 X155.56 Y69.975 E4.51036
G1 X156.349 Y70.015 E4.54714
G1 X157.129 Y70.135 E4.58389
G1 X157.587 Y70.243 E4.6058
G1 X157.821 Y70.306 E4.61709
G1 X158.572 Y70.55 E4.65386
G1 X159.295 Y70.868 E4.69063
G1 X160.177 Y71.387 E4.73829
G1 X160.408 Y71.544 E4.75129
G1 X161.038 Y72.02 E4.78806
G1 X161.617 Y72.558 E4.82486
G1 X162.138 Y73.151 E4.86162
G1 X162.728 Y74.007 E4.91003
G1 X162.891 Y74.281 E4.92487
G1 X163.259 Y74.979 E4.96162
G1 X163.556 Y75.711 E4.9984
G1 X163.808 Y76.606 E5.0417
G1 X163.844 Y76.771 E5.04956
G1 X163.973 Y77.55 E5.08633
G1 X164.023 Y78.415 E5.12667
G1 X164.028 Y80.481 E5.22287
G1 X164.028 Y80.501 E5.2238
G1 X164.023 Y139.457 E7.96904
G1 X164.024 Y141.562 E8.06706
G1 X163.984 Y142.351 E8.10385
G1 X163.865 Y143.132 E8.14063
G1 X163.734 Y143.674 E8.1666
G1 X163.663 Y143.927 E8.17883
G1 X163.411 Y144.675 E8.21559
G1 X163.085 Y145.394 E8.25235
G1 X162.688 Y146.077 E8.28913
G1 X162.149 Y146.808 E8.33142
G1 X161.921 Y147.082 E8.34802
G1 X161.386 Y147.663 E8.3848
G1 X160.794 Y148.186 E8.42158
G1 X160.153 Y148.647 E8.45835
G1 X159.19 Y149.177 E8.50953
G1 X158.947 Y149.289 E8.52199
G1 X158.214 Y149.583 E8.55876
G1 X157.455 Y149.801 E8.59554
G1 X156.339 Y149.977 E8.64814
G1 X156.067 Y150 E8.66085
G1 X155.398 Y150.028 E8.69203
G1 X152.246 Y150.023 E8.8388
G1 X124.502 Y150.029 E10.13068
G1 X124.482 Y150.029 E10.13161
G1 X121.855 Y150.023 E10.25394
G1 X66.552 Y150.024 E12.82908
G1 X64.442 Y150.025 E12.92733
G1 X63.653 Y149.985 E12.96411
G1 X62.872 Y149.866 E13.0009
G1 X62.334 Y149.736 E13.02667
G1 X62.077 Y149.664 E13.0391
G1 X61.328 Y149.413 E13.07588
G1 X60.609 Y149.087 E13.11264
G1 X59.926 Y148.69 E13.14943
G1 X59.226 Y148.177 E13.18984
G1 X58.961 Y147.959 E13.20582
G1 X58.377 Y147.427 E13.2426
G1 X57.85 Y146.839 E13.27937
G1 X57.385 Y146.2 E13.31617
G1 X56.988 Y145.518 E13.35291
G1 X56.744 Y145.002 E13.37949
G1 X56.611 Y144.691 E13.39524
G1 X56.338 Y143.95 E13.43201
G1 X56.141 Y143.185 E13.4688
G1 X56.022 Y142.405 E13.50554
G1 X55.983 Y141.664 E13.54009
G1 X55.972 Y139.54 E13.63899
G1 X55.972 Y139.497 E13.64099
G1 X55.977 Y124.349 E14.34635
G1 X55.976 Y78.433 E16.48439
G1 X56.016 Y77.644 E16.52118
G1 X56.135 Y76.864 E16.55792
G1 X56.249 Y76.389 E16.58066
G1 X56.315 Y76.146 E16.59239
G1 X56.56 Y75.395 E16.62917
G1 X56.88 Y74.673 E16.66594
G1 X57.271 Y73.987 E16.70271
G1 X57.792 Y73.266 E16.74413
G1 X58.015 Y72.992 E16.76058
G1 X58.544 Y72.406 E16.79734
G1 X59.13 Y71.876 E16.83413
G0 F6000 X59.414 Y72.16
G1 F1200 X60.036 Y71.709 E16.86991
G1 X60.702 Y71.324 E16.90573
G1 X61.163 Y71.109 E16.92942
G1 X61.475 Y70.976 E16.94521
G1 X62.197 Y70.711 E16.98102
G1 X62.943 Y70.523 E17.01684
G1 X63.995 Y70.393 E17.0662
G1 X64.208 Y70.382 E17.07613
G1 X64.586 Y70.372 E17.09374
G1 X66.496 Y70.371 E17.18268
G1 X66.501 Y70.371 E17.18291
G1 X124.432 Y70.377 E19.88042
G1 X126.478 Y70.371 E19.97569
G1 X126.501 Y70.371 E19.97676
G1 X155.56 Y70.375 E21.32987
G1 X156.328 Y70.415 E21.36568
G1 X157.088 Y70.535 E21.40151
G1 X157.483 Y70.629 E21.42042
G1 X157.717 Y70.692 E21.4317
G1 X158.448 Y70.931 E21.46751
G1 X159.151 Y71.244 E21.50334
G1 X159.953 Y71.718 E21.54672
G1 X160.184 Y71.875 E21.55973
G1 X160.796 Y72.34 E21.59552
G1 X161.358 Y72.866 E21.63136
G1 X161.861 Y73.447 E21.66715
G1 X162.384 Y74.212 E21.7103
G1 X162.547 Y74.486 E21.72514
G1 X162.905 Y75.166 E21.76093
G1 X163.191 Y75.88 E21.79674
G1 X163.417 Y76.692 E21.83599
G1 X163.453 Y76.857 E21.84385
G1 X163.578 Y77.616 E21.87967
G1 X163.623 Y78.416 E21.91698
G1 X163.628 Y80.482 E22.01318
G1 X163.628 Y80.501 E22.01407
G1 X163.623 Y139.457 E24.7593
G1 X163.624 Y141.562 E24.85732
G1 X163.584 Y142.331 E24.89318
G1 X163.465 Y143.091 E24.929
G1 X163.349 Y143.565 E24.95172
G1 X163.278 Y143.818 E24.96396
G1 X163.032 Y144.547 E24.99978
G1 X162.711 Y145.246 E25.0356
G1 X162.32 Y145.909 E25.07144
G1 X161.841 Y146.552 E25.10878
G1 X161.613 Y146.826 E25.12537
G1 X161.091 Y147.391 E25.16119
G1 X160.513 Y147.899 E25.19702
G1 X159.886 Y148.344 E25.23283
G1 X159.023 Y148.814 E25.27858
G1 X158.78 Y148.926 E25.29104
G1 X158.065 Y149.211 E25.32688
G1 X157.325 Y149.42 E25.36269
G1 X156.306 Y149.579 E25.41071
G1 X156.034 Y149.602 E25.42342
G1 X155.398 Y149.628 E25.45306
G1 X152.246 Y149.623 E25.59983
G1 X124.502 Y149.629 E26.89171
G1 X124.483 Y149.629 E26.89259
G1 X121.856 Y149.623 E27.01492
G1 X66.552 Y149.624 E29.5901
G1 X64.442 Y149.625 E29.68835
G1 X63.673 Y149.585 E29.72421
G1 X62.913 Y149.466 E29.76003
G1 X62.442 Y149.351 E29.78261
G1 X62.185 Y149.279 E29.79503
G1 X61.456 Y149.033 E29.83086
G1 X60.756 Y148.713 E29.8667
G1 X60.094 Y148.322 E29.9025
G1 X59.48 Y147.868 E29.93806
G1 X59.215 Y147.65 E29.95404
G1 X58.647 Y147.131 E29.98986
G1 X58.136 Y146.556 E30.02568
G1 X57.688 Y145.931 E30.06149
G1 X57.307 Y145.263 E30.0973
G1 X57.112 Y144.845 E30.11878
G1 X56.979 Y144.534 E30.13453
G1 X56.714 Y143.812 E30.17034
G1 X56.525 Y143.066 E30.20617
G1 X56.414 Y142.305 E30.24198
G1 X56.383 Y141.662 E30.27196
G1 X56.372 Y139.538 E30.37086
G1 X56.372 Y139.498 E30.37272
G1 X56.377 Y124.35 E31.07808
G1 X56.376 Y78.433 E33.21617
G1 X56.416 Y77.665 E33.25198
G1 X56.535 Y76.905 E33.2878
G1 X56.635 Y76.493 E33.30754
G1 X56.701 Y76.25 E33.31926
G1 X56.941 Y75.52 E33.35504
G1 X57.255 Y74.818 E33.39085
G1 X57.641 Y74.152 E33.4267
G1 X58.103 Y73.519 E33.46319
G1 X58.326 Y73.245 E33.47964
G1 X58.841 Y72.674 E33.51544
G1 X59.414 Y72.16 E33.55129
G0 F6000 X59.697 Y72.446
G1 F1200 X60.306 Y72.011 E33.58614
G1 X60.957 Y71.644 E33.62093
G1 X61.32 Y71.477 E33.63954
G1 X61.632 Y71.344 E33.65533
G1 X62.335 Y71.088 E33.69017
G1 X63.061 Y70.908 E33.725
G1 X64.016 Y70.792 E33.76979
G1 X64.229 Y70.781 E33.77973
G1 X64.586 Y70.772 E33.79636
G1 X66.496 Y70.771 E33.88529
G1 X66.501 Y70.771 E33.88553
G1 X124.433 Y70.777 E36.58308
G1 X126.479 Y70.771 E36.67835
G1 X126.501 Y70.771 E36.67938
G1 X155.56 Y70.775 E38.03249
G1 X156.307 Y70.815 E38.06732
G1 X157.379 Y71.016 E38.11811
G1 X157.613 Y71.079 E38.12939
G1 X158.324 Y71.311 E38.16422
G1 X159.006 Y71.619 E38.19906
G1 X159.728 Y72.049 E38.23819
G1 X159.959 Y72.206 E38.2512
G1 X160.554 Y72.659 E38.28602
G1 X161.098 Y73.172 E38.32083
G1 X161.583 Y73.741 E38.35565
G1 X162.04 Y74.416 E38.39361
G1 X162.203 Y74.69 E38.40845
G1 X162.551 Y75.353 E38.44332
G1 X162.825 Y76.048 E38.4781
G1 X163.026 Y76.777 E38.51332
G1 X163.062 Y76.942 E38.52118
G1 X163.182 Y77.68 E38.556
G1 X163.223 Y78.417 E38.59037
G1 X163.228 Y80.483 E38.68657
G1 X163.228 Y80.501 E38.68741
G1 X163.223 Y139.457 E41.43264
G1 X163.224 Y141.563 E41.53071
G1 X163.184 Y142.31 E41.56554
G1 X163.065 Y143.048 E41.60035
G1 X162.964 Y143.457 E41.61997
G1 X162.893 Y143.71 E41.6322
G1 X162.652 Y144.419 E41.66707
G1 X162.338 Y145.097 E41.70186
G1 X161.953 Y145.739 E41.73672
G1 X161.534 Y146.296 E41.76918
G1 X161.306 Y146.57 E41.78578
G1 X160.797 Y147.119 E41.82064
G1 X160.233 Y147.61 E41.85546
G1 X159.62 Y148.039 E41.89029
G1 X158.855 Y148.45 E41.93073
G1 X158.612 Y148.562 E41.94319
G1 X157.917 Y148.839 E41.97803
G1 X157.196 Y149.039 E42.01287
G1 X156.272 Y149.18 E42.05639
G1 X156 Y149.203 E42.0691
G1 X155.399 Y149.228 E42.09711
G1 X152.247 Y149.223 E42.24388
G1 X124.502 Y149.229 E43.53581
G1 X124.484 Y149.229 E43.53664
G1 X121.857 Y149.223 E43.65897
G1 X66.551 Y149.224 E46.23425
G1 X64.441 Y149.225 E46.3325
G1 X63.694 Y149.185 E46.36733
G1 X62.956 Y149.066 E46.40214
G1 X62.55 Y148.965 E46.42162
G1 X62.293 Y148.893 E46.43405
G1 X61.584 Y148.653 E46.4689
G1 X60.905 Y148.339 E46.50374
G1 X60.264 Y147.954 E46.53856
G1 X59.734 Y147.559 E46.56933
G1 X59.469 Y147.341 E46.58531
G1 X58.917 Y146.835 E46.62018
G1 X58.423 Y146.274 E46.65499
G1 X57.991 Y145.663 E46.68983
G1 X57.48 Y144.687 E46.74113
G1 X57.347 Y144.376 E46.75688
G1 X57.09 Y143.674 E46.79169
G1 X56.909 Y142.948 E46.82653
G1 X56.807 Y142.207 E46.86136
G1 X56.783 Y141.66 E46.88686
G1 X56.772 Y139.536 E46.98576
G1 X56.772 Y139.498 E46.98753
G1 X56.777 Y124.35 E47.69288
G1 X56.776 Y78.433 E49.83097
G1 X56.816 Y77.686 E49.8658
G1 X57.021 Y76.598 E49.91736
G1 X57.087 Y76.355 E49.92908
G1 X57.321 Y75.645 E49.96389
G1 X57.63 Y74.963 E49.99876
G1 X58.01 Y74.319 E50.03357
G1 X58.413 Y73.771 E50.06525
G1 X58.636 Y73.497 E50.0817
G1 X59.138 Y72.943 E50.11651
G1 X59.697 Y72.446 E50.15134
G0 F6000 X59.98 Y72.732
G1 F1200 X60.574 Y72.315 E50.18513
G1 X61.477 Y71.845 E50.23254
G1 X61.789 Y71.712 E50.24833
G1 X62.472 Y71.464 E50.28216
G1 X63.178 Y71.293 E50.31599
G1 X64.037 Y71.192 E50.35626
G1 X64.25 Y71.181 E50.3662
G1 X64.587 Y71.172 E50.38189
G1 X66.497 Y71.171 E50.47083
G1 X66.501 Y71.171 E50.47102
G1 X124.435 Y71.177 E53.16867
G1 X126.481 Y71.171 E53.26394
G1 X126.501 Y71.171 E53.26487
G1 X155.56 Y71.175 E54.61798
G1 X156.285 Y71.215 E54.65179
G1 X157.275 Y71.402 E54.6987
G1 X157.509 Y71.465 E54.70999
G1 X158.199 Y71.692 E54.74381
G1 X158.86 Y71.994 E54.77765
G1 X159.503 Y72.379 E54.81255
G1 X159.734 Y72.536 E54.82555
G1 X160.311 Y72.977 E54.85937
G1 X160.837 Y73.479 E54.89322
G1 X161.304 Y74.035 E54.92703
G1 X161.696 Y74.621 E54.95986
G1 X161.859 Y74.895 E54.97471
G1 X162.196 Y75.538 E55.00851
G1 X162.459 Y76.215 E55.04233
G1 X162.635 Y76.862 E55.07355
G1 X162.671 Y77.027 E55.08142
G1 X162.787 Y77.744 E55.11524
G1 X162.823 Y78.418 E55.14667
G1 X162.828 Y80.484 E55.24287
G1 X162.828 Y80.501 E55.24366
G1 X162.823 Y139.457 E57.9889
G1 X162.824 Y141.563 E58.08696
G1 X162.784 Y142.288 E58.12077
G1 X162.579 Y143.349 E58.17109
G1 X162.508 Y143.602 E58.18333
G1 X162.273 Y144.29 E58.21718
G1 X161.965 Y144.947 E58.25097
G1 X161.586 Y145.567 E58.28481
G1 X161.226 Y146.041 E58.31252
G1 X160.998 Y146.315 E58.32912
G1 X160.504 Y146.847 E58.36292
G1 X159.954 Y147.321 E58.39673
G1 X159.355 Y147.732 E58.43056
G1 X158.688 Y148.087 E58.46574
G1 X158.445 Y148.199 E58.4782
G1 X157.769 Y148.466 E58.51205
G1 X157.069 Y148.658 E58.54584
G1 X156.238 Y148.782 E58.58497
G1 X155.966 Y148.805 E58.59768
G1 X155.4 Y148.828 E58.62406
G1 X152.247 Y148.823 E58.77087
G1 X124.501 Y148.829 E60.06284
G1 X124.485 Y148.829 E60.06359
G1 X121.858 Y148.823 E60.18591
G1 X66.551 Y148.824 E62.76124
G1 X64.441 Y148.825 E62.85949
G1 X63.716 Y148.785 E62.8933
G1 X62.658 Y148.58 E62.94348
G1 X62.401 Y148.508 E62.95591
G1 X61.713 Y148.274 E62.98975
G1 X61.055 Y147.966 E63.02358
G1 X60.435 Y147.587 E63.05741
G1 X59.988 Y147.25 E63.08348
G1 X59.723 Y147.032 E63.09946
G1 X59.188 Y146.54 E63.1333
G1 X58.711 Y145.993 E63.1671
G1 X58.296 Y145.396 E63.20095
G1 X57.848 Y144.53 E63.24635
G1 X57.715 Y144.219 E63.2621
G1 X57.466 Y143.537 E63.29591
G1 X57.294 Y142.831 E63.32975
G1 X57.201 Y142.111 E63.36355
G1 X57.183 Y141.658 E63.38466
G1 X57.172 Y139.534 E63.48356
G1 X57.172 Y139.498 E63.48524
G1 X57.177 Y124.35 E64.19059
G1 X57.176 Y78.433 E66.32868
G1 X57.216 Y77.708 E66.36249
G1 X57.407 Y76.703 E66.41013
G1 X57.473 Y76.46 E66.42185
G1 X57.701 Y75.771 E66.45565
G1 X58.004 Y75.111 E66.48946
G1 X58.378 Y74.488 E66.5233
G1 X58.723 Y74.024 E66.55022
G1 X58.946 Y73.75 E66.56667
G1 X59.435 Y73.213 E66.60049
G1 X59.98 Y72.732 E66.63434
G0 F6000 X60.262 Y73.02
G1 F1200 X60.841 Y72.62 E66.66711
G1 X61.634 Y72.213 E66.70861
G1 X61.946 Y72.08 E66.7244
G1 X62.608 Y71.841 E66.75718
G1 X63.293 Y71.678 E66.78996
G1 X64.057 Y71.591 E66.82577
G1 X64.27 Y71.58 E66.8357
G1 X64.587 Y71.572 E66.85047
G1 X66.497 Y71.571 E66.9394
G1 X66.501 Y71.571 E66.93959
G1 X124.436 Y71.577 E69.63729
G1 X126.482 Y71.571 E69.73256
G1 X126.501 Y71.571 E69.73344
G1 X155.56 Y71.575 E71.08655
G1 X156.263 Y71.615 E71.11934
G1 X157.171 Y71.788 E71.16238
G1 X157.405 Y71.851 E71.17366
G1 X158.073 Y72.072 E71.20643
G1 X158.712 Y72.368 E71.23922
G1 X159.278 Y72.71 E71.27001
G1 X159.509 Y72.867 E71.28302
G1 X160.068 Y73.295 E71.3158
G1 X160.575 Y73.784 E71.3486
G1 X161.023 Y74.327 E71.38138
G1 X161.352 Y74.825 E71.40917
G1 X161.515 Y75.099 E71.42402
G1 X161.84 Y75.724 E71.45682
G1 X162.093 Y76.381 E71.4896
G1 X162.244 Y76.947 E71.51688
G1 X162.28 Y77.112 E71.52474
G1 X162.391 Y77.808 E71.55756
G1 X162.423 Y78.419 E71.58605
G1 X162.428 Y80.485 E71.68225
G1 X162.428 Y80.501 E71.683
G1 X162.423 Y139.457 E74.42824
G1 X162.424 Y141.563 E74.5263
G1 X162.384 Y142.266 E74.55909
G1 X162.193 Y143.241 E74.60535
G1 X162.122 Y143.494 E74.61759
G1 X161.894 Y144.16 E74.65036
G1 X161.592 Y144.796 E74.68315
G1 X161.219 Y145.393 E74.71593
G1 X160.919 Y145.785 E74.73891
G1 X160.691 Y146.059 E74.75551
G1 X160.211 Y146.573 E74.78826
G1 X159.675 Y147.03 E74.82106
G1 X159.091 Y147.424 E74.85386
G1 X158.52 Y147.724 E74.88389
G1 X158.277 Y147.836 E74.89635
G1 X157.622 Y148.094 E74.92913
G1 X156.942 Y148.276 E74.96191
G1 X156.204 Y148.383 E74.99664
G1 X155.932 Y148.406 E75.00935
G1 X155.4 Y148.428 E75.03414
G1 X152.247 Y148.423 E75.18096
G1 X124.501 Y148.429 E76.47293
G1 X124.486 Y148.429 E76.47363
G1 X121.859 Y148.423 E76.59595
G1 X66.551 Y148.424 E79.17132
G1 X64.441 Y148.425 E79.26957
G1 X63.738 Y148.385 E79.30236
G1 X62.765 Y148.195 E79.34852
G1 X62.508 Y148.123 E79.36095
G1 X61.842 Y147.895 E79.39373
G1 X61.207 Y147.593 E79.42647
G1 X60.609 Y147.221 E79.45926
G1 X60.242 Y146.941 E79.48076
G1 X59.977 Y146.723 E79.49674
G1 X59.46 Y146.246 E79.52949
G1 X59 Y145.713 E79.56228
G1 X58.603 Y145.131 E79.59508
G1 X58.215 Y144.373 E79.63473
G1 X58.082 Y144.062 E79.65048
G1 X57.843 Y143.4 E79.68325
G1 X57.68 Y142.715 E79.71604
G1 X57.595 Y142.016 E79.74883
G1 X57.583 Y141.656 E79.7656
G1 X57.572 Y139.532 E79.86451
G1 X57.572 Y139.498 E79.86609
G1 X57.577 Y124.35 E80.57144
G1 X57.576 Y78.433 E82.70953
G1 X57.616 Y77.73 E82.74232
G1 X57.793 Y76.808 E82.78604
G1 X57.859 Y76.565 E82.79776
G1 X58.082 Y75.897 E82.83055
G1 X58.379 Y75.259 E82.86332
G1 X58.746 Y74.658 E82.89611
G1 X59.033 Y74.276 E82.91836
G1 X59.256 Y74.002 E82.93481
G1 X59.731 Y73.482 E82.96761
G1 X60.262 Y73.02 E83.00038
G0 F6000 X60.542 Y73.308
G1 F1200 X61.107 Y72.927 E83.03211
G1 X61.791 Y72.581 E83.0678
G1 X62.103 Y72.448 E83.0836
G1 X62.744 Y72.218 E83.11531
G1 X63.407 Y72.065 E83.14699
G1 X64.078 Y71.991 E83.17843
G1 X64.291 Y71.98 E83.18836
G1 X64.587 Y71.972 E83.20214
G1 X66.497 Y71.971 E83.29108
G1 X66.501 Y71.971 E83.29127
G1 X124.437 Y71.977 E85.98901
G1 X126.483 Y71.971 E86.08428
G1 X126.501 Y71.971 E86.08512
G1 X155.56 Y71.975 E87.43823
G1 X156.24 Y72.015 E87.46995
G1 X157.067 Y72.174 E87.50916
G1 X157.301 Y72.237 E87.52045
G1 X157.947 Y72.453 E87.55216
G1 X158.563 Y72.742 E87.58385
G1 X159.053 Y73.041 E87.61057
G1 X159.284 Y73.198 E87.62358
G1 X159.824 Y73.613 E87.65529
G1 X160.311 Y74.089 E87.687
G1 X160.74 Y74.618 E87.71872
G1 X161.009 Y75.03 E87.74163
G1 X161.172 Y75.304 E87.75647
G1 X161.485 Y75.908 E87.78815
G1 X161.725 Y76.545 E87.81985
G1 X161.854 Y77.033 E87.84335
G1 X161.89 Y77.198 E87.85122
G1 X161.996 Y77.87 E87.88289
